X: 12
M:2/4
L:1/16
K:D
(uA,"4"D)|vF2(F"4"A) GFED|EAAB A2(F"4"A)|\
fd"4"ec dcBA|BdAF D2:|
|:((3uefg)|vafdA bafd|ABAF GFED|\
afdA bafd|ABAF GFED|.D(dcd) F"4"AEA|DdAF D2:|


